packages/bezier-icons/icons/face-id.svg

<svg width="24" height="24" viewBox="0 0 24 24" fill="none" xmlns="http://www.w3.org/2000/svg">
<path d="M6 5C5.44772 5 5 5.44772 5 6V8C5 8.55228 4.55228 9 4 9C3.44772 9 3 8.55228 3 8V6C3 4.34315 4.34315 3 6 3H8C8.55228 3 9 3.44772 9 4C9 4.55228 8.55228 5 8 5H6Z" fill="#313234"/>
<path d="M19 6C19 5.44772 18.5523 5 18 5L16 5C15.4477 5 15 4.55228 15 4C15 3.44771 15.4477 3 16 3H18C19.6569 3 21 4.34315 21 6V8C21 8.55228 20.5523 9 20 9C19.4477 9 19 8.55228 19 8V6Z" fill="#313234"/>
<path d="M6 19C5.44772 19 5 18.5523 5 18L5 16C5 15.4477 4.55228 15 4 15C3.44771 15 3 15.4477 3 16V18C3 19.6569 4.34315 21 6 21H8C8.55228 21 9 20.5523 9 20C9 19.4477 8.55228 19 8 19H6Z" fill="#313234"/>
<path d="M18 19C18.5523 19 19 18.5523 19 18V16C19 15.4477 19.4477 15 20 15C20.5523 15 21 15.4477 21 16V18C21 19.6569 19.6569 21 18 21H16C15.4477 21 15 20.5523 15 20C15 19.4477 15.4477 19 16 19H18Z" fill="#313234"/>
<path d="M7.5 9.24824C7.5 8.835 7.835 8.5 8.24824 8.5C8.66148 8.5 8.99648 8.835 8.99648 9.24824V10.6018C8.99648 11.015 8.66148 11.35 8.24824 11.35C7.835 11.35 7.5 11.015 7.5 10.6018V9.24824Z" fill="#313234"/>
<path d="M15.7482 8.5C15.335 8.5 15 8.835 15 9.24824V10.6018C15 11.015 15.335 11.35 15.7482 11.35C16.1615 11.35 16.4965 11.015 16.4965 10.6018V9.24824C16.4965 8.835 16.1615 8.5 15.7482 8.5Z" fill="#313234"/>
<path d="M11.7 9.28511C11.7 8.8573 12.0468 8.5105 12.4746 8.5105C12.9024 8.5105 13.2492 8.8573 13.2492 9.28511V12.6601C13.2492 13.4946 12.5708 14.173 11.7363 14.173H11.3496C10.9218 14.173 10.575 13.8262 10.575 13.3984C10.575 12.9706 10.9218 12.6238 11.3496 12.6238H11.7V9.28511Z" fill="#313234"/>
<path d="M14.3064 14.886C14.6206 14.5958 15.1107 14.6152 15.401 14.9294C15.6912 15.2437 15.6718 15.7338 15.3576 16.024C14.441 16.8706 13.2482 17.337 12 17.337C10.7517 17.337 9.55892 16.8706 8.6424 16.0241C8.32813 15.7338 8.30872 15.2437 8.59898 14.9294C8.88927 14.6152 9.37927 14.5958 9.69356 14.886C10.3232 15.4676 11.142 15.7878 12 15.7878C12.858 15.7878 13.6767 15.4676 14.3064 14.886Z" fill="#313234"/>
</svg>

<svg xmlns="http://www.w3.org/2000/svg" width="24" height="24" fill="none" viewBox="0 0 24 24"><path fill="#313234" d="M6 5a1 1 0 0 0-1 1v2a1 1 0 0 1-2 0V6a3 3 0 0 1 3-3h2a1 1 0 0 1 0 2zM19 6a1 1 0 0 0-1-1h-2a1 1 0 1 1 0-2h2a3 3 0 0 1 3 3v2a1 1 0 1 1-2 0zM6 19a1 1 0 0 1-1-1v-2a1 1 0 1 0-2 0v2a3 3 0 0 0 3 3h2a1 1 0 1 0 0-2zM18 19a1 1 0 0 0 1-1v-2a1 1 0 1 1 2 0v2a3 3 0 0 1-3 3h-2a1 1 0 1 1 0-2zM7.5 9.248a.748.748 0 0 1 1.496 0v1.354a.748.748 0 0 1-1.496 0zM15.748 8.5a.75.75 0 0 0-.748.748v1.354a.748.748 0 0 0 1.497 0V9.248a.75.75 0 0 0-.749-.748M11.7 9.285a.775.775 0 1 1 1.55 0v3.375c0 .835-.68 1.513-1.514 1.513h-.386a.775.775 0 1 1 0-1.55h.35zM14.306 14.886a.775.775 0 0 1 1.052 1.138A4.94 4.94 0 0 1 12 17.337a4.94 4.94 0 0 1-3.358-1.313.775.775 0 0 1 1.052-1.138c.63.582 1.448.902 2.306.902s1.677-.32 2.306-.902"/></svg>
